!!!COM: Mozart, Wolfgang Amadeus
!!!CDT: 1756/01/27/-1791/12/05/
!!!CNT: German
!!!OTL: Piano Sonata No. 6 in D major
!!!SCT1: K<sup>1</sup> 284
!!!SCT2: K<sup>6</sup> 205b
!!!OMV: Mvmt. 1
!!!OMD: Allegro
!!!ODT: 1775///
**kern	**kern	**dynam
*staff2	*staff1	*staff1
*>[A,A,B,B]	*>[A,A,B,B]	*>[A,A,B,B]
*>norep[A,B]	*>norep[A,B]	*>norep[A,B]
*>A	*>A	*>A
*clefF4	*clefG2	*clefG2
*k[f#c#]	*k[f#c#]	*k[f#c#]
*D:	*D:	*D:
*M4/4	*M4/4	*M4/4
*met(c)	*met(c)	*met(c)
*MM136	*MM136	*MM136
=1-	=1-	=1-
4DD/ 4D/	4d:/ 4f#:/ 4a:/ 4dd:/	f
4r	4r	.
(16G\LL	(16g/LL	.
16F#\	16f#/	.
16E\	16e/	.
16D\JJ	16d/JJ	.
16G\LL	16g/LL	.
16F#\	16f#/	.
16E\	16e/	.
16D\JJ	16d/JJ	.
=2	=2	=2
4A'\)	4a'/)	.
4F#'\	4f#'/	.
4B'\	4b'/	.
8r	8r	.
8F#\	8f#/	.
=3	=3	=3
8G\L	8g/L	.
8E\	8e/	.
8A\	8a/	.
8F#\J	8f#/J	.
8D/L	8d/L	.
8BB/	8B/	.
8E/	8e/	.
8C#/J	8c#/J	.
=4	=4	=4
(8AA\L	4A/	.
8A\	.	.
8AA\	4r	.
8A\J	.	.
8AA\L	8r	.
8A\	8f#'/ 8dd'/L	p
8AA\	8f#'/ 8dd'/	.
8A\J	8f#'/ 8dd'/J	.
=5	=5	=5
8AA\L	(8f#/ 8dd/L	f
8A\	8e/) 8cc#/J	.
8AA\	4e/ 4cc#/	.
8A\J	.	.
8AA\L	8r	.
8A\	8dd'\ 8ff#'\L	p
8AA\	8dd'\ 8ff#'\	.
8A\J	8dd'\ 8ff#'\J	.
=6	=6	=6
8AA\L	8dd\ (8ff#\L	f
8A\	8cc#\ 8ee\J)	.
8AA\	4cc#\ 4ee\	.
8A\J	.	.
8AA\L	8r	.
8A\	8ff#'\ 8aa'\L	p
8AA\	8ff#'\ 8aa'\	.
8A\J	8ff#'\ 8aa'\J	.
=7	=7	=7
4AA/)	(16gg\LL	f
.	16ff#\	.
.	16gg\	.
.	16aa\JJ	.
4r	16bb\LL	.
.	16aa\	.
.	16gg\	.
.	16ff#\JJ	.
2r	16ee\LL	.
.	16dd#\	.
.	16ee\	.
.	16ff#\JJ	.
.	16gg\LL	.
.	16ff#\	.
.	16ee\	.
.	16ddn\JJ	.
=8	=8	=8
(16c#\LL	16cc#\LL	.
16B\	16b\	.
16c#\	16cc#\	.
16d\JJ	16dd\JJ	.
16e\LL	16ee\LL	.
16d\	16dd\	.
16c#\	16cc#\	.
16B\JJ	16b\JJ	.
16A\LL	16a/LL	.
16G#\	16g#/	.
16A\	16a/	.
16B\JJ	16b/JJ	.
16A\LL	16a/LL	.
16Gn\	16gn/	.
16F#\	16f#/	.
16E\JJ)	16e/JJ)	.
=9	=9	=9
*	*^	*
8D\L	(2d/	2ryy	f
8D\	.	.	.
8D\	.	.	.
8D\J	.	.	.
8D\L	4e/	4c#\	p
8D\	.	.	.
8D\	4f#/)	4cn\	.
8D\J	.	.	.
=10	=10	=10	=10
8D\L	(8.g/L	4B\	.
8D\	.	.	.
.	32a/LL	.	.
.	32b/JJJ	.	.
8D\	8a/L)	4c#\	.
8D\J	8g/J	.	.
8D\L	4f#/	4d\	.
8D\	.	.	.
8D\	4r	4ryy	.
8D\J	.	.	.
=11	=11	=11	=11
8DD/ 8D/L	(2f#/	2d\	f
8D/	.	.	.
8D/	.	.	.
8D/J	.	.	.
8D\L	4g/	4e\	p
8D\	.	.	.
8D\	4a/)	4f#\	.
8D\J	.	.	.
=12	=12	=12	=12
8D\L	(8.b/L	2g\	.
8D\	.	.	.
.	32cc#/LL	.	.
.	32dd/JJJ	.	.
8D\	8cc#/L)	.	.
8D\J	8b/J	.	.
8D\L	4a/	4f#\	.
8D\	.	.	.
8D\	4ryy	8r	.
8D\J	.	8ff#\	.
*	*v	*v	*
=13	=13	=13
4GG\ 4G\	(16ee\LL	f
.	16ddd\	.
.	16ee\	.
.	16ddd\JJ	.
4D\ 4d\	16ee\LL	.
.	16ddd\	.
.	16ee\	.
.	16ddd\JJ	.
4BB\ 4B\	16ee\LL	.
.	16ddd\	.
.	16ee\	.
.	16ddd\JJ	.
4GG\ 4G\	16ee\LL	.
.	16ddd\	.
.	16ee\	.
.	16ddd\JJ	.
=14	=14	=14
4AA\ 4A\	16ff#\LL	.
.	16ddd\	.
.	16ff#\	.
.	16ddd\JJ	.
4D\ 4d\	16ff#\LL	.
.	16ddd\	.
.	16ff#\	.
.	16ddd\JJ	.
4Cn\ 4cn\	16ff#\LL	.
.	16ddd\	.
.	16ff#\	.
.	16ddd\JJ	.
4AA\ 4A\	16ff#\LL	.
.	16ddd\	.
.	16ff#\	.
.	16ddd\JJ	.
=15	=15	=15
4BB\ 4B\	16gg\LL	.
.	16ddd\	.
.	16gg\	.
.	16ddd\JJ	.
4G\ 4g\	16gg\LL	.
.	16ddd\	.
.	16gg\	.
.	16ddd\JJ	.
4D\ 4d\	16gg\LL	.
.	16ddd\	.
.	16gg\	.
.	16ddd\JJ	.
4BB\ 4B\	16gg\LL	.
.	16ddd\	.
.	16gg\	.
.	16ddd\JJ)	.
=16	=16	=16
4BB-\ 4B-\	16dd\ (16gg#\LL	.
.	16ddd\	.
.	16dd\ 16gg#\	.
.	16ddd\JJ	.
4Fn\ 4fn\	16dd\ 16gg#\LL	.
.	16ddd\	.
.	16dd\ 16gg#\	.
.	16ddd\JJ	.
4D\ 4d\	16dd\ 16gg#\LL	.
.	16ddd\	.
.	16dd\ 16gg#\	.
.	16ddd\JJ	.
4BB-\ 4B-\	16dd\ 16gg#\LL	.
.	16ddd\	.
.	16dd\ 16gg#\	.
.	16ddd\JJ)	.
*clefG2	*	*
=17	=17	=17
16A/LL	4ee\ 4aa\ 4ccc#\	.
16a/	.	.
16g#/	.	.
16a/JJ	.	.
16b/LL	8r	.
16a/	.	.
16f#/	8aa'\	.
16a/JJ	.	.
16e/LL	8ggn'\L	.
16a/	.	.
16d/	8ff#'\	.
16a/JJ	.	.
16c#/LL	8ee'\	.
16a/	.	.
16B/	8dd'\J	.
16a/JJ	.	.
=18	=18	=18
16A/LL	8cc#'\L	.
16a/	.	.
16B/	8dd'\	.
16a/JJ	.	.
16c#/LL	8ee'\	.
16a/	.	.
16d/	8ff#'\J	.
16a/JJ	.	.
16e/LL	(16aa\LL	.
16a/	16gg\	.
16c#/	16ff#\	.
16a/JJ	16ee\JJ	.
16d/LL	16gg\LL	.
16a/	16ff#\	.
16B/	16ee\	.
16a/JJ	16dd\JJ	.
=19	=19	=19
16A/LL	4cc#\ 4ee\ 4aa\)	.
16a/	.	.
16g#/	.	.
16a/JJ	.	.
16b/LL	8r	.
16a/	.	.
16f#/	8aa'\	.
16a/JJ	.	.
16e/LL	8gg'\L	.
16a/	.	.
16d/	8ff#'\	.
16a/JJ	.	.
16c#/LL	8ee'\	.
16a/	.	.
16B/	8dd'\J	.
16a/JJ	.	.
=20	=20	=20
16A/LL	8cc#'\L	.
16a/	.	.
16B/	8dd'\	.
16a/JJ	.	.
16c#/LL	8ee'\	.
16a/	.	.
16d/	8ff#'\J	.
16a/JJ	.	.
16e/LL	(16aa\LL	.
16a/	16gg\	.
16c#/	16ff#\	.
16a/JJ	16ee\JJ	.
16d/LL	16gg\LL	.
16a/	16ff#\	.
16B/	16ee\	.
16a/JJ	16dd\JJ	.
=21	=21	=21
4A/	4cc#\ 4ee\ 4aa\)	.
4A/ 4c#/ 4e/	(16ee\LL	.
.	16cc#\	.
.	16ee\	.
.	16cc#\JJ	.
4A/ 4c#/ 4e/	4a/)	.
4r	4r	.
=22	=22	=22
1r	4ee\	p
.	(8aa\L	.
.	8gg#\J	.
.	8bb\L	.
.	8aa\	.
.	8gg#\	.
.	8ff#\J)	.
=23	=23	=23
8g#/ 8b/L	(8ff#W\L	.
8g#/ 8b/	8ee\J)	.
8g#/ 8b/	4.ee\	.
8g#/ 8b/J	.	.
8g#/ 8b/L	.	.
8g#/ 8b/	(16eeW\LL	.
.	16dd\JJ	.
8g#/ 8b/	8ee'\L)	.
8g#/ 8b/J	8ff#'\J	.
=24	=24	=24
8f#/ 8a/L	(8ee\	.
8f#/ 8a/	4ddn\	.
8f#/ 8a/	.	.
8f#/ 8a/J	8ff#\)	.
8e/ 8g#/L	(8dd\	.
8e/ 8g#/	4cc#\	.
8e/ 8g#/	.	.
8e/ 8g#/J	8ee\)	.
=25	=25	=25
8d/ 8f#/L	(16cc#\LL	.
.	16b\	.
8d/ 8f#/	16dd\	.
.	16cc#\JJ	.
8d/ 8f#/	16ee\LL	.
.	16dd\	.
8d/ 8f#/J	16cc#\	.
.	16b\JJ	.
4c#/ 4e/	16a/LL	.
.	16b/	.
.	16a/	.
.	16g#/JJ	.
4r	16a\LL	.
.	16b\	.
.	16cc#\	.
.	16dd\JJ	.
=26	=26	=26
1r	16dd#\LL	.
.	16ee\	.
.	16ff#\	.
.	16ee\JJ	.
.	16gg#\LL	.
.	16ff#\	.
.	16aa\	.
.	16gg#\JJ	.
.	8bb\L	.
.	8aa\	.
.	8gg#\	.
.	8ff#\J)	.
=27	=27	=27
8g#/ 8b/L	(8dd#\L	.
8g#/ 8b/	16ff#\L	.
.	16ee\JJ)	.
8g#/ 8b/	([4ee\	.
8g#/ 8b/J	.	.
8g#/ 8b/L	16ee\LL]	.
.	16ff#\	.
8g#/ 8b/	16ee\	.
.	16dd#\JJ	.
8g#/ 8b/	8ee'\L)	.
8g#/ 8b/J	[8ee\J	.
=28	=28	=28
8f#/ 8a/L	8ee\]	.
8f#/ 8a/	4cc#\	.
8f#/ 8a/	.	.
8f#/ 8a/J	4ddn\	.
8e/ 8g#/L	.	.
8e/ 8g#/	4b#\	.
8e/ 8g#/	.	.
8e/ 8g#/J	[8cc#\	.
=29	=29	=29
8d/ 8f#/L	8cc#\]	.
8d/ 8f#/	4a#/	.
8d/ 8f#/	.	.
8d/ 8f#/J	[8bn/	.
4c#/ 4e/	(16b/LL]	.
.	16g#/	.
.	16b/	.
.	16an/JJ	.
4r	16ff#\LL	.
.	16ee\	.
.	16dd\	.
.	16cc#\JJ)	.
*clefF4	*	*
=30	=30	=30
8D\ 8d\L	(16b\LL	f
.	16aa\	.
8C#\ 8c#\	16a#\	.
.	16aan\JJ	.
8D\ 8d\	16b\LL	.
.	16aa\	.
8C#\ 8c#\J	16a#\	.
.	16aan\JJ	.
4D\ 4d\	16b\LL	.
.	16dd\	.
.	16ff#\	.
.	16ee\JJ	.
4r	16ggn\LL	.
.	16ff#\	.
.	16ee\	.
.	16dd\JJ)	.
=31	=31	=31
8E\ 8e\L	16cc#\LL	.
.	(16aa\	.
8D#\ 8d#\	16b#\	.
.	16aa\JJ	.
8E\ 8e\	16cc#\LL	.
.	16aa\	.
8D#\ 8d#\J	16b#\	.
.	16aa\JJ	.
4E\ 4e\	16cc#\LL	.
.	16ee\	.
.	16gg\	.
.	16ff#\JJ	.
4r	16aa\LL	.
.	16gg\	.
.	16ff#\	.
.	16ee\JJ)	.
=32	=32	=32
8F#\ 8f#\L	16dd\LL	.
.	(16aa\	.
8E#\ 8e#\	16cc#\	.
.	16aa\JJ	.
8F#\ 8f#\	16dd\LL	.
.	16aa\	.
8E#\ 8e#\J	16cc#\	.
.	16aa\JJ	.
4F#\ 4f#\	16dd\LL	.
.	16ff#\	.
.	16aa\	.
.	16gg#\JJ	.
4r	16bb\LL	.
.	16aa\	.
.	16gg#\	.
.	16aa\JJ	.
=33	=33	=33
(16Fn\LL	8dd#\)	.
16A\	.	.
16cn\	4aa\	.
16d#\JJ	.	.
16F\LL	.	.
16A\	.	.
16c\	4cccn\	.
16d#\JJ	.	.
16F\LL	.	.
16A\	.	.
16c\	4bb\	.
16d#\JJ	.	.
16F\LL	.	.
16A\	.	.
16c\	8aa\	.
16d#\JJ	.	.
=34	=34	=34
*	*^	*
8En\L)	2ryy	4gg#\	.
8e\J	.	.	.
*clefG2	*	*	*
8e/ 8g#/L	.	8r	.
8e/ 8g#/J	.	8ee\	p
8e/ 8a#/L	(8ee#/L	4cc#\	.
8e/ 8a#/	8ff#/J)	.	.
8e/ 8b/	8r	[4ddn\	.
8e/ 8b/J	8ff#/	.	.
=35	=35	=35	=35
8e/ 8g#/L	(8dd#/L	4dd\]	.
8e/ 8g#/	8een/J)	.	.
8e/ 8an/	8r	2cc#\	.
8e/ 8a/J	8ee/	.	.
8e/ 8f#/L	(8aa/L	.	.
8e/ 8f#/	8ddn/J)	.	.
8e/ 8g#/	8r	4b\	.
8e/ 8g#/J	8dd/	.	.
*	*v	*v	*
=36	=36	=36
*^	*	*
8e/ 8a/L	2ryy	(8b#\L	.
8e/ 8a/	.	8cc#\J)	.
8e/ 8cc#/	.	8r	.
8e/ 8cc#/J	.	8ee\	.
2dd/	[2e\	(16ff#\LL	.
.	.	16gg#\	.
.	.	16aa\	.
.	.	16gg#\JJ	.
.	.	16bbn\LL	.
.	.	16aa\	.
.	.	16gg#\	.
.	.	16ff#\JJ	.
=37	=37	=37	=37
(4cc#/	1e]	16ee\LL	.
.	.	16aa\	.
.	.	16ccc#\	.
.	.	16gg#\JJ	.
4a/)	.	16aa\LL	.
.	.	16ee\	.
.	.	16ff#\	.
.	.	16cc#\JJ	.
(4b/	.	16dd\LL	.
.	.	16ee\	.
.	.	16ff#\	.
.	.	16ee\JJ	.
4g#/)	.	16gg#\LL	.
.	.	16ff#\	.
.	.	16ee\	.
.	.	16dd\JJ)	.
*v	*v	*	*
=38	=38	=38
4r	(16cc#\LL	f
.	16ee\	.
.	16aa\	.
.	16gg#\JJ	.
*clefF4	*	*
8r	16aa\LL	.
.	16ee\	.
8AAA/ 8AA/	16cc#\	.
.	16a\JJ	.
8CC#/ 8C#/L	16aa\LL	.
.	16ee\	.
8EE/ 8E/J	16cc#\	.
.	16a\JJ	.
4AA/ 4A/	16aa\LL	.
.	16ee\	.
.	16cc#\	.
.	16a\JJ)	.
=39	=39	=39
4r	(16ff#\LL	.
.	16gg#\	.
.	16aa\	.
.	16gg#\JJ	.
8r	16aa\LL	.
.	16ff#\	.
8DD/ 8D/	16dd\	.
.	16a\JJ	.
8FF#/ 8F#/L	16aa\LL	.
.	16ff#\	.
8AA/ 8A/J	16dd\	.
.	16a\JJ	.
4D\ 4d\	16aa\LL	.
.	16ff#\	.
.	16dd\	.
.	16a\JJ)	.
=40	=40	=40
8E\ 8e\L	8.cc#\ 8.ee\L	.
8E\ 8e\	.	.
.	32dd\ 32ff#\LL	.
.	32b\ 32dd\JJJ	.
8E\ 8e\	4.a\ 4.cc#\	.
8E\ 8e\J	.	.
8E\ 8e\L	.	.
8E\ 8e\	8cc#\ 8ee\L	p
8E\ 8e\	8b\ 8dd\	.
8E\ 8e\J	8g#\ 8b\J	.
=41	=41	=41
4r	(16cc#\LL	f
.	16ee\	.
.	16aa\	.
.	16gg#\JJ	.
8r	16aa\LL	.
.	16ee\	.
8AAA/ 8AA/	16cc#\	.
.	16a\JJ	.
8CC#/ 8C#/L	16aa\LL	.
.	16ee\	.
8EE/ 8E/J	16cc#\	.
.	16a\JJ	.
4AA/ 4A/	16aa\LL	.
.	16ee\	.
.	16cc#\	.
.	16a\JJ)	.
=42	=42	=42
4r	(16ff#\LL	.
.	16gg#\	.
.	16aa\	.
.	16gg#\JJ	.
8r	16aa\LL	.
.	16ff#\	.
8DD/ 8D/	16dd\	.
.	16a\JJ	.
8FF#/ 8F#/L	16aa\LL	.
.	16ff#\	.
8AA/ 8A/J	16dd\	.
.	16a\JJ	.
4D\ 4d\	16aa\LL	.
.	16ff#\	.
.	16dd\	.
.	16a\JJ)	.
=43	=43	=43
8E\ 8e\L	8.cc#\ 8.ee\L	.
8E\ 8e\	.	.
.	32dd\ 32ff#\LL	.
.	32b\ 32dd\JJJ	.
8E\ 8e\	4.a\ 4.cc#\	.
8E\ 8e\J	.	.
8E\ 8e\L	.	.
8E\ 8e\	8cc#\ 8ee\L	p
8E\ 8e\	8b\ 8dd\	.
8E\ 8e\J	8g#\ 8b\J	.
=44	=44	=44
(8.A\L	(8.a/L	f
32B\LL	32b/LL	.
32G#\JJJ	32g#/JJJ	.
8.F#\L	8.f#/L	.
32G#\LL	32g#/LL	.
32E\JJJ	32e/JJJ	.
8.D\L	8.d/L	.
32E\LL	32e/LL	.
32C#\JJJ	32c#/JJJ	.
8.BB/L	8.B/L	.
32C#/LL	32c#/LL	.
32AA/JJJ	32A/JJJ	.
=45	=45	=45
4GG#/)	4G#/)	.
4r	4ee:\ 4gg#:\ 4bb:\ 4ddd:\	.
4AA\ 4A\	4r	.
4r	4ee:\ 4aa:\ 4ccc#:\	.
*clefG2	*	*
=46	=46	=46
4d/ 4a/	8r	.
.	(8ff#\L	p
4r	8ee#\	.
.	8ff#\J	.
2r	8ee#\L	.
.	8ff#\	.
.	8gg#\	.
.	8aa\J)	.
=47	=47	=47
4d#/ 4ccn/	8r	.
.	(8aa\L	.
4r	8gg#\	.
.	8aa\J	.
2r	8gg#\L	.
.	8aa\	.
.	8bb\	.
.	8cccn\J)	.
*clefF4	*	*
=48	=48	=48
(16E\LL	(16ccc#X\LL	f
16c#X\	16eee\	.
16A\	16ccc#\	.
16c#\JJ	16aa\JJ	.
16E\LL	(16aa\LL)	.
16c#\	16ccc#\	.
16A\	16aa\	.
16c#\JJ	16ee\JJ)	.
16E\LL	(16ee\LL	.
16c#\	16aa\	.
16A\	16ee\	.
16c#\JJ	16cc#\JJ)	.
16E\LL	(16cc#\LL	.
16c#\	16ee\	.
16A\	16cc#\	.
16c#\JJ	16a\JJ)	.
=49	=49	=49
16E\LL	1bT	.
16dn\	.	.
16G#\	.	.
16d\JJ	.	.
16E\LL	.	.
16d\	.	.
16G#\	.	.
16d\JJ	.	.
16E\LL	.	.
16d\	.	.
16G#\	.	.
16d\JJ	.	.
16E\LL	.	.
16d\	.	.
16G#\	.	.
16d\JJ	.	.
.	16aQ/LL	.
.	16bQ/JJ	.
=50	=50	=50
4.A\ 4.c#\)	4.a/	.
(16c#\LL	(16cc#/LL	.
16A\JJ	16a/JJ	.
8d\L)	8dd/L)	.
(16B\L	(16b/L	.
16G#\JJ	16g#/JJ	.
8A\L)	8a/L)	.
(16F#\L	(16f#/L	.
16D#\JJ	16d#/JJ	.
=51	=51	=51
4E\)	4e/)	.
4EE/ 4E/	4b:\ 4ddn:\ 4ee:\ 4gg#:\	.
4AAA/ 4AA/	4a:\ 4cc#:\ 4ee:\ 4aa:\	.
4r	4r	.
=52:|!|:	=52:|!|:	=52:|!|:
*>B	*>B	*>B
4AA\ 4A\	16a\LL	.
.	16aa\	.
.	16gg#\	.
.	16aa\JJ	.
*clefG2	*	*
8cn/L	16a\LL	.
.	16aa\	.
8d/J	16b\	.
.	16aa\JJ	.
8e/L	16ccn\LL	.
.	16aa\	.
8fn/	16dd\	.
.	16aa\JJ	.
8e/	16cc\LL	.
.	16aa\	.
8d/J	16b\	.
.	16aa\JJ	.
=53	=53	=53
*	*^	*
4cn/	4ryy	16a\LL	.
.	.	16aa\	.
.	.	16gg#\	.
.	.	16aa\JJ	.
2.ryy	8cccn/L	16a\LL	.
.	.	16aa\	.
.	8bb/J	16a\	.
.	.	16ggn\JJ	.
.	8aa/L	16a\LL	.
.	.	16ff#\	.
.	8bb/	16a\	.
.	.	16gg\JJ	.
.	8aa/	16a\LL	.
.	.	16ff#\	.
.	8gg/J	16a\	.
.	.	16ee\JJ	.
=54	=54	=54	=54
4ryy	16ff#/	16dd#\LL	.
.	8.ryy	16bb\	.
.	.	16aa#\	.
.	.	16bb\JJ	.
8f#/L	2.ryy	16dd#\LL	.
.	.	16bb\	.
8g/J	.	16ee\	.
.	.	16bb\JJ	.
8a/L	.	16ff#\LL	.
.	.	16bb\	.
8b/	.	16gg\	.
.	.	16bb\JJ	.
8a/	.	16ff#\LL	.
.	.	16bb\	.
8g/J	.	16ee\	.
.	.	16bb\JJ	.
=55	=55	=55	=55
4f#/	4ryy	16dd#\LL	.
.	.	16bb\	.
.	.	16aa#\	.
.	.	16bb\JJ	.
2.ryy	8cccn/L	16b\LL	.
.	.	16aan\	.
.	8bb/J	16b\	.
.	.	16gg\JJ	.
.	8aa/L	16b\LL	.
.	.	16ff#\	.
.	8gg/	16b\	.
.	.	16ee\JJ	.
.	8ff#/	16b\LL	.
.	.	16dd#\	.
.	8aa/J	16b\	.
.	.	16ff#\JJ	.
*clefF4	*	*	*
=56	=56	=56	=56
4ryy	16gg/	16b\LL	.
.	8.ryy	16ee\	.
.	.	16dd#\	.
.	.	16ee\JJ	.
8G\L	2.ryy	16e\LL	.
.	.	16ee\	.
8A\J	.	16f#\	.
.	.	16ee\JJ	.
8B\L	.	16g\LL	.
.	.	16ee\	.
8cn\	.	16a\	.
.	.	16ee\JJ	.
8B\	.	16g\LL	.
.	.	16ee\	.
8A\J	.	16f#\	.
.	.	16ee\JJ	.
=57	=57	=57	=57
4G\	4ryy	16e\LL	.
.	.	16ee\	.
.	.	16dd#\	.
.	.	16ee\JJ	.
2.ryy	8gg/L	16e\LL	.
.	.	16ee\	.
.	8ff#/J	16e\	.
.	.	16ddn\JJ	.
.	8ee/L	16e\LL	.
.	.	16cc#\	.
.	8ff#/	16e\	.
.	.	16dd\JJ	.
.	8ee/	16e\LL	.
.	.	16cc#\	.
.	8dd/J	16e\	.
.	.	16b\JJ	.
*clefG2	*	*	*
=58	=58	=58	=58
4ryy	16cc#/	16a#\LL	.
.	8.ryy	16ff#\	.
.	.	16ee#\	.
.	.	16ff#\JJ	.
8f#/L	2.ryy	16a#\LL	.
.	.	16ff#\	.
8g#/J	.	16b\	.
.	.	16ff#\JJ	.
8a#/L	.	16cc#\LL	.
.	.	16ff#\	.
8b/	.	16dd\	.
.	.	16ff#\JJ	.
8a#/	.	16cc#\LL	.
.	.	16ff#\	.
8g#/J	.	16b\	.
.	.	16ff#\JJ	.
=59	=59	=59	=59
4f#/	4ryy	16a#\LL	.
.	.	16ff#\	.
.	.	16ee#\	.
.	.	16ff#\JJ	.
2.ryy	8gg/L	16f#\LL	.
.	.	16een\	.
.	8ff#/J	16f#\	.
.	.	16dd\JJ	.
.	8ee/L	16f#\LL	.
.	.	16cc#\	.
.	8dd/	16f#\	.
.	.	16b\JJ	.
.	8cc#/	16f#\LL	.
.	.	16a#\	.
.	8ee/J	16f#\	.
.	.	16cc#\JJ	.
*	*v	*v	*
=60	=60	=60
(16B/LL	4dd\	.
16f#/	.	.
16d/	.	.
16f#/JJ	.	.
16B/LL	4.ddd\	.
16gn/	.	.
16d/	.	.
16g/JJ	.	.
16B/LL	.	.
16g/	.	.
16d/	(8bb\L	p
16g/JJ	.	.
16B/LL	8gg\	.
16g/	.	.
16d/	8ff#\J)	.
16g/JJ	.	.
=61	=61	=61
*	*^	*
4B/)	4ryy	16r	.
.	.	(16ee#\LL	.
.	.	16gg#\	.
.	.	16ee#\JJ)	.
2.ryy	(4bb/	16r	f
.	.	(16ee#\LL	.
.	.	16gg#\	.
.	.	16ee#\JJ)	.
.	4ccc#/	16r	.
.	.	(16ee#\LL	.
.	.	16gg#\	.
.	.	16ee#\JJ)	.
.	4ddd/)	16r	.
.	.	(16ee#\LL	.
.	.	16gg#\	.
.	.	16ee#\JJ)	.
*	*v	*v	*
=62	=62	=62
(16A/LL	4ff#\	.
16f#/	.	.
16c#/	.	.
16f#/JJ	.	.
16A/LL	4.cccn\	.
16f#/	.	.
16cn/	.	.
16f#/JJ	.	.
16A/LL	.	.
16f#/	.	.
16c/	(8aa\L	p
16f#/JJ	.	.
16A/LL	8ff#\	.
16f#/	.	.
16c/	8een\J)	.
16f#/JJ	.	.
=63	=63	=63
*	*^	*
4A/)	4ryy	16r	.
.	.	(16dd#\LL	.
.	.	16ff#\	.
.	.	16dd#\JJ)	.
2.ryy	(4aa/	16r	f
.	.	(16dd#\LL	.
.	.	16ff#\	.
.	.	16dd#\JJ)	.
.	4bb/	16r	.
.	.	(16dd#\LL	.
.	.	16ff#\	.
.	.	16dd#\JJ)	.
.	4cccn/)	16r	.
.	.	(16dd#\LL	.
.	.	16ff#\	.
.	.	16dd#\JJ)	.
*	*v	*v	*
*clefF4	*	*
=64	=64	=64
(16G\LL	4ee\	.
16e\	.	.
16B\	.	.
16e\JJ	.	.
16G\LL	4.bb-\	.
16e\	.	.
16B-\	.	.
16e\JJ	.	.
16G\LL	.	.
16e\	.	.
16B-\	(8gg\L	p
16e\JJ	.	.
16G\LL	8ee\	.
16e\	.	.
16B-\	8ddn\J)	.
16e\JJ)	.	.
=65	=65	=65
*	*^	*
4G\	4ryy	16r	.
.	.	(16cc#X\LL	.
.	.	16ee\	.
.	.	16cc#\JJ)	.
2.ryy	(4gg/	16r	f
.	.	(16cc#\LL	.
.	.	16ee\	.
.	.	16cc#\JJ)	.
.	4aa/	16r	.
.	.	(16cc#\LL	.
.	.	16ee\	.
.	.	16cc#\JJ)	.
.	4bb-/)	16r	.
.	.	(16cc#\LL	.
.	.	16ee\	.
.	.	16cc#\JJ)	.
*	*v	*v	*
*clefG2	*	*
=66	=66	=66
4fn/ 4a/	16r	.
.	(16dd\LL	.
.	16ddd\	.
.	16dd\JJ)	.
4e/ 4g/	16r	.
.	(16cc#\LL	.
.	16ccc#\	.
.	16cc#\JJ)	.
4f/ 4a/	16r	.
.	(16dd\LL	.
.	16ddd\	.
.	16dd\JJ)	.
4c#/ 4e/	16r	.
.	(16a\LL	.
.	16aa\	.
.	16a\JJ)	.
=67	=67	=67
4d/ 4fn/	16r	.
.	(16b-\LL	.
.	16bb-\	.
.	16b-\JJ)	.
4c#/ 4e/	16r	.
.	(16a\LL	.
.	16aa\	.
.	16a\JJ)	.
4d/ 4f/	16r	.
.	(16b-\LL	.
.	16bb-\	.
.	16b-\JJ)	.
*clefF4	*	*
4A\ 4cn\	16r	.
.	(16f#X\LL	.
.	16ff#X\	.
.	16f#\JJ)	.
=68	=68	=68
4B-\ 4d\	16r	.
.	(16g\LL	p
.	16gg\	.
.	16g\JJ)	.
4A\ 4cn\	16r	.
.	(16f#\LL	.
.	16ff#\	.
.	16f#\JJ)	.
4B-\ 4d\	16r	.
.	(16g\LL	.
.	16gg\	.
.	16g\JJ)	.
4A\ 4c\	16r	.
.	(16fn\LL	.
.	16ffn\	.
.	16f\JJ)	.
=69	=69	=69
4G\ 4B-\	16r	.
.	(16e-/LL	.
.	16ee-/	.
.	16e-/JJ)	.
4F#X\ 4A\	16r	.
.	(16d/LL	.
.	16dd/	.
.	16d/JJ)	.
4G\ 4B-\	16r	.
.	(16e-/LL	.
.	16ee-/	.
.	16e-/JJ)	.
4G#\ 4Bn\	16r	.
.	(16d/LL	.
.	16dd/	.
.	16d/JJ)	.
=70	=70	=70
4AA\ 4A\	16cc#X/LL	.
.	16bn/	.
.	(16a/	.
.	16g#/JJ	.
4r	16a\LL	.
.	16b\	.
.	16cc#\	.
.	16dd\JJ	<
2r	16een\LL	.
.	16dd\	.
.	16cc#\	.
.	16b\JJ	.
.	16cc#\LL	.
.	16dd\	.
.	16ee\	.
.	16ff#\JJ	.
=71	=71	=71
1r	16ggn\LL	.
.	16ff#\	.
.	16ee\	.
.	16ff#\JJ	.
.	16ee\LL	.
.	16dd\	.
.	16cc#\	.
.	16dd\JJ	.
.	16cc#\LL	.
.	16b\	.
.	16a\	.
.	16b\JJ	.
.	16a/LL	.
.	16gn/	.
.	16f#/	.
.	16e/JJ)	.
=72	=72	=72
4DD/ 4D/	4d/ 4f#/ 4a/ 4dd/	f
4r	4r	.
(16G\LL	(16g/LL	.
16F#\	16f#/	.
16E\	16e/	.
16D\JJ	16d/JJ	.
16G\LL	16g/LL	.
16F#\	16f#/	.
16E\	16e/	.
16D\JJ	16d/JJ	.
=73	=73	=73
4A'\)	4a'/)	.
4F#'\	4f#'/	.
4B'\	4b'/	.
8r	8r	.
8F#\	8f#/	.
=74	=74	=74
8G\L	8g/L	.
8E\	8e/	.
8A\	8a/	.
8F#\J	8f#/J	.
8D/L	8d/L	.
8BB/	8B/	.
8E/	8e/	.
8C#/J	8c#/J	.
=75	=75	=75
(8AA\L	4A/	.
8A\	.	.
8AA\	4r	.
8A\J	.	.
8AA\L	8r	.
8A\	8f#'/ 8dd'/L	p
8AA\	8f#'/ 8dd'/	.
8A\J	8f#'/ 8dd'/J	.
=76	=76	=76
8AA\L	(8f#/ 8dd/L	f
8A\	8e/) 8cc#/J	.
8AA\	4e/ 4cc#/	.
8A\J	.	.
8AA\L	8r	.
8A\	8dd'\ 8ff#'\L	p
8AA\	8dd'\ 8ff#'\	.
8A\J	8dd'\ 8ff#'\J	.
=77	=77	=77
8AA\L	8dd\ (8ff#\L	f
8A\	8cc#\ 8ee\J)	.
8AA\	4cc#\ 4ee\	.
8A\J	.	.
8AA\L	8r	.
8A\	8ff#'\ 8aa'\L	p
8AA\	8ff#'\ 8aa'\	.
8A\J	8ff#'\ 8aa'\J	.
=78	=78	=78
4AA/)	(16gg\LL	f
.	16ff#\	.
.	16gg\	.
.	16aa\JJ	.
4r	16bb\LL	.
.	16aa\	.
.	16gg\	.
.	16ff#\JJ	.
2r	16ee\LL	.
.	16dd#\	.
.	16ee\	.
.	16ff#\JJ	.
.	16gg\LL	.
.	16ff#\	.
.	16ee\	.
.	16ddn\JJ	.
=79	=79	=79
(16c#\LL	16cc#\LL	.
16B\	16b\	.
16c#\	16cc#\	.
16d\JJ	16dd\JJ	.
16e\LL	16ee\LL	.
16d\	16dd\	.
16c#\	16cc#\	.
16B\JJ	16b\JJ	.
16A\LL	16a/LL	.
16G#\	16g#/	.
16A\	16a/	.
16B\JJ	16b/JJ	.
16A\LL	16a/LL	.
16Gn\	16gn/	.
16F#\	16f#/	.
16E\JJ)	16e/JJ)	.
=80	=80	=80
*	*^	*
8D\L	(2d/	2ryy	f
8D\	.	.	.
8D\	.	.	.
8D\J	.	.	.
8D\L	4e/	4c#\	p
8D\	.	.	.
8D\	4f#/)	4cn\	.
8D\J	.	.	.
=81	=81	=81	=81
8D\L	(8.g/L	4B\	.
8D\	.	.	.
.	32a/LL	.	.
.	32b/JJJ	.	.
8D\	8a/L)	4c#X\	.
8D\J	8g/J	.	.
8D\L	4f#/	4d\	.
8D\	.	.	.
8D\	4r	4ryy	.
8D\J	.	.	.
=82	=82	=82	=82
8DD/ 8D/L	(2f#/	2d\	f
8D/	.	.	.
8D/	.	.	.
8D/J	.	.	.
8D\L	4g/	4e\	p
8D\	.	.	.
8D\	4a/)	4f#\	.
8D\J	.	.	.
=83	=83	=83	=83
8D\L	(8.b/L	2g\	.
8D\	.	.	.
.	32cc#/LL	.	.
.	32dd/JJJ	.	.
8D\	8cc#/L)	.	.
8D\J	8b/J	.	.
8D\L	4a/	4f#\	.
8D\	.	.	.
8D\	4ryy	8r	.
8D\J	.	8ff#\	.
*	*v	*v	*
=84	=84	=84
4GG\ 4G\	(16ee\LL	f
.	16ddd\	.
.	16ee\	.
.	16ddd\JJ	.
4D\ 4d\	16ee\LL	.
.	16ddd\	.
.	16ee\	.
.	16ddd\JJ	.
4BB\ 4B\	16ee\LL	.
.	16ddd\	.
.	16ee\	.
.	16ddd\JJ	.
4GG\ 4G\	16ee\LL	.
.	16ddd\	.
.	16ee\	.
.	16ddd\JJ	.
=85	=85	=85
4AA\ 4A\	16ff#\LL	.
.	16ddd\	.
.	16ff#\	.
.	16ddd\JJ	.
4D\ 4d\	16ff#\LL	.
.	16ddd\	.
.	16ff#\	.
.	16ddd\JJ	.
4Cn\ 4cn\	16ff#\LL	.
.	16ddd\	.
.	16ff#\	.
.	16ddd\JJ	.
4AA\ 4A\	16ff#\LL	.
.	16ddd\	.
.	16ff#\	.
.	16ddd\JJ	.
=86	=86	=86
4BB\ 4B\	16gg\LL	.
.	16ddd\	.
.	16gg\	.
.	16ddd\JJ	.
4G\ 4g\	16gg\LL	.
.	16ddd\	.
.	16gg\	.
.	16ddd\JJ	.
4D\ 4d\	16gg\LL	.
.	16ddd\	.
.	16gg\	.
.	16ddd\JJ	.
4BB\ 4B\	16gg\LL	.
.	16ddd\	.
.	16gg\	.
.	16ddd\JJ)	.
=87	=87	=87
4BB-\ 4B-\	16dd\ (16gg#\LL	.
.	16ddd\	.
.	16dd\ 16gg#\	.
.	16ddd\JJ	.
4Fn\ 4fn\	16dd\ 16gg#\LL	.
.	16ddd\	.
.	16dd\ 16gg#\	.
.	16ddd\JJ	.
4D\ 4d\	16dd\ 16gg#\LL	.
.	16ddd\	.
.	16dd\ 16gg#\	.
.	16ddd\JJ	.
4BB-\ 4B-\	16dd\ 16gg#\LL	.
.	16ddd\	.
.	16dd\ 16gg#\	.
.	16ddd\JJ)	.
*clefG2	*	*
=88	=88	=88
16A/LL	4ee\ 4aa\ 4ccc#\	.
16a/	.	.
16g#/	.	.
16a/JJ	.	.
16b/LL	8r	.
16a/	.	.
16f#/	8aa'\	.
16a/JJ	.	.
16e/LL	8ggn'\L	.
16a/	.	.
16d/	8ff#'\	.
16a/JJ	.	.
16c#/LL	8ee'\	.
16a/	.	.
16B/	8dd'\J	.
16a/JJ	.	.
=89	=89	=89
16A/LL	8cc#'\L	.
16a/	.	.
16B/	8dd'\	.
16a/JJ	.	.
16c#/LL	8ee'\	.
16a/	.	.
16d/	8ff#'\J	.
16a/JJ	.	.
16e/LL	(16aa\LL	.
16a/	16gg\	.
16c#/	16ff#\	.
16a/JJ	16ee\JJ	.
16d/LL	16gg\LL	.
16a/	16ff#\	.
16B/	16ee\	.
16a/JJ	16dd\JJ	.
=90	=90	=90
16A/LL	4cc#\ 4ee\ 4aa\)	.
16a/	.	.
16g#/	.	.
16a/JJ	.	.
16b/LL	8r	.
16a/	.	.
16f#/	8aa'\	.
16a/JJ	.	.
16e/LL	8gg'\L	.
16a/	.	.
16d/	8ff#'\	.
16a/JJ	.	.
16c#/LL	8ee'\	.
16a/	.	.
16B/	8dd'\J	.
16a/JJ	.	.
=91	=91	=91
16A/LL	8cc#'\L	.
16a/	.	.
16B/	8dd'\	.
16a/JJ	.	.
16c#/LL	8ee'\	.
16a/	.	.
16d/	8ff#'\J	.
16a/JJ	.	.
16e/LL	(16aa\LL	.
16a/	16gg\	.
16c#/	16ff#\	.
16a/JJ	16ee\JJ	.
16d/LL	16gg\LL	.
16a/	16ff#\	.
16B/	16ee\	.
16a/JJ	16dd\JJ	.
=92	=92	=92
4A/	4cc#\ 4ee\ 4aa\)	.
4A/ 4c#/ 4e/	(16ee\LL	.
.	16cc#\	.
.	16ee\	.
.	16cc#\JJ	.
4A/ 4c#/ 4e/	4a/)	.
4r	4r	.
=93	=93	=93
1r	4a/	p
.	(8dd\L	.
.	8cc#\J	.
.	8ee\L	.
.	8dd\	.
.	8cc#\	.
.	8b\J)	.
*clefF4	*	*
=94	=94	=94
8c#\ 8e\L	(8bW/L	.
8c#\ 8e\	8a/J)	.
8c#\ 8e\	4.a/	.
8c#\ 8e\J	.	.
8c#\ 8e\L	.	.
8c#\ 8e\	(16aW/LL	.
.	16g#/JJ	.
8c#\ 8e\	8a'/L)	.
8c#\ 8e\J	8b'/J	.
=95	=95	=95
8B\ 8d\L	(8a/	.
8B\ 8d\	4gn/	.
8B\ 8d\	.	.
8B\ 8d\J	8b/)	.
8A\ 8c#\L	(8g/	.
8A\ 8c#\	4f#/	.
8A\ 8c#\	.	.
8A\ 8c#\J	8a/)	.
=96	=96	=96
8G\ 8B\L	(16f#/LL	.
.	16e/	.
8G\ 8B\	16g/	.
.	16f#/JJ	.
8G\ 8B\	16a/LL	.
.	16g/	.
8G\ 8B\J	16f#/	.
.	16e/JJ	.
4F#\ 4A\	16d/LL	.
.	16e/	.
.	16d/	.
.	16c#/JJ	.
4r	16d/LL	.
.	16e/	.
.	16f#/	.
.	16g/JJ	.
=97	=97	=97
1r	16g#/LL	.
.	16a/	.
.	16b/	.
.	16a/JJ	.
.	16cc#\LL	.
.	16b\	.
.	16dd\	.
.	16cc#\JJ	.
.	16ee\LL	.
.	16dd\	.
.	16ff#\	.
.	16ee\JJ	.
.	16ggn\LL	.
.	16ff#\	.
.	16aa\	.
.	16gg\JJ	.
=98	=98	=98
1r	16gg#\LL	.
.	16aa\	.
.	16bb\	.
.	16aa\JJ	.
.	16ccc#\LL	.
.	16bb\	.
.	16ddd\	.
.	16ccc#\JJ	.
.	8eee\L	.
.	8ddd\	.
.	8ccc#\	.
.	8bb\J)	.
*clefG2	*	*
=99	=99	=99
8cc#\ 8ee\L	(8gg#\L	.
8cc#\ 8ee\	16bb\L	.
.	16aa\JJ)	.
8cc#\ 8ee\	([4aa\	.
8cc#\ 8ee\J	.	.
8cc#\ 8ee\L	16aa\LL]	.
.	16bb\	.
8cc#\ 8ee\	16aa\	.
.	16gg#\JJ	.
8cc#\ 8ee\	8aa\L)	.
8cc#\ 8ee\J	[8aa\J	.
=100	=100	=100
8b\ 8dd\L	8aa\]	.
8b\ 8dd\	4ff#\	.
8b\ 8dd\	.	.
8b\ 8dd\J	4ggn\	.
8a\ 8cc#\L	.	.
8a\ 8cc#\	4ee#\	.
8a\ 8cc#\	.	.
8a\ 8cc#\J	[8ff#\	.
=101	=101	=101
8g/ 8b/L	8ff#\]	.
8g/ 8b/	4dd#\	.
8g/ 8b/	.	.
8g/ 8b/J	[8een\	.
4f#/ 4a/	(16ee\LL]	.
.	16cc#\	.
.	16ee\	.
.	16ddn\JJ	.
4r	16bb\LL	.
.	16aa\	.
.	16gg\	.
.	16ff#\JJ)	.
*clefF4	*	*
=102	=102	=102
8GG/ 8G/L	16ee\LL	f
.	(16ddd\	.
8FF#/ 8F#/	16dd#\	.
.	16dddn\JJ	.
8GG/ 8G/	16ee\LL	.
.	16ddd\	.
8FF#/ 8F#/J	16dd#X\	.
.	16dddn\JJ	.
4GG/ 4G/	16ee\LL	.
.	16gg\	.
.	16bb\	.
.	16aa\JJ	.
4r	16cccn\LL	.
.	16bb\	.
.	16aa\	.
.	16gg\JJ)	.
=103	=103	=103
8AA\ 8A\L	(16ff#\LL	.
.	16ddd\	.
8GG#\ 8G#\	16ee#\	.
.	16ddd\JJ	.
8AA\ 8A\	16ff#\LL	.
.	16ddd\	.
8GG#\ 8G#\J	16ee#\	.
.	16ddd\JJ	.
4AA\ 4A\	16ff#\LL	.
.	16aa\	.
.	16cccn\	.
.	16bb\JJ	.
4r	16ddd\LL	.
.	16ccc\	.
.	16bb\	.
.	16aa\JJ)	.
=104	=104	=104
8BB\ 8B\L	(16gg\LL	.
.	16ddd\	.
8AA#\ 8A#\	16ff#\	.
.	16ddd\JJ	.
8BB\ 8B\	16gg\LL	.
.	16ddd\	.
8AA#\ 8A#\J	16ff#\	.
.	16ddd\JJ	.
4BB\ 4B\	16gg\LL	.
.	16bb\	.
.	16ddd\	.
.	16ccc#X\JJ	.
4r	16ddd\LL	.
.	16ccc#\	.
.	16bb\	.
.	16aa\JJ	.
*clefG2	*	*
=105	=105	=105
(16B-/LL	8gg#\)	.
16d/	.	.
16fn/	4dd\	.
16g#/JJ	.	.
16B-/LL	.	.
16d/	.	.
16f/	4ffn\	.
16g#/JJ	.	.
16B-/LL	.	.
16d/	.	.
16f/	4ee\	.
16g#/JJ	.	.
16B-/LL	.	.
16d/	.	.
16f/	8dd\	.
16g#/JJ)	.	.
=106	=106	=106
*	*^	*
8A/ 8a/L	4ryy	4cc#\	.
8A/J	.	.	.
*clefF4	*	*	*
8A\ 8c#\L	8r	4ry	.
8A\ 8c#\J	8a/	.	p
8A\ 8d#\L	(8a#/L	4f#\	.
8A\ 8d#\	8b/J)	.	.
8A\ 8e\	8r	[4gn\	.
8A\ 8e\J	8b/	.	.
=107	=107	=107	=107
8A\ 8c#\L	(8g#/L	4g\]	.
8A\ 8c#\	8an/J)	.	.
8A\ 8dn\	8r	2f#\	.
8A\ 8d\J	8a/	.	.
8A\ 8B\L	(8dd/L	.	.
8A\ 8B\	8gn/J)	.	.
8A\ 8c#\	8r	4e\	.
8A\ 8c#\J	8g/	.	.
*	*v	*v	*
=108	=108	=108
*^	*	*
2ryy	8A\ 8d\L	(8e#/L	.
.	8A\ 8d\	8f#/J)	.
.	8A\ 8f#\	8r	.
.	8A\ 8f#\J	8aa\	.
2g/	[2A\	(16bb\LL	.
.	.	16ccc#\	.
.	.	16ddd\	.
.	.	16ccc#\JJ	.
.	.	16eeen\LL	.
.	.	16ddd\	.
.	.	16ccc#\	.
.	.	16bb\JJ	.
=109	=109	=109	=109
(4f#/	1A]	16aa\LL	.
.	.	16ccc#\	.
.	.	16ddd\	.
.	.	16ccc#\JJ	.
4d/)	.	16ddd\LL	.
.	.	16aa\	.
.	.	16bb\	.
.	.	16ff#\JJ	.
(4e/	.	16gg\LL	.
.	.	16aa\	.
.	.	16bb\	.
.	.	16aa\JJ	.
4c#/)	.	16ccc#\LL	.
.	.	16bb\	.
.	.	16aa\	.
.	.	16gg\JJ)	.
*v	*v	*	*
=110	=110	=110
4r	(16ff#\LL	f
.	16aa\	.
.	16ddd\	.
.	16ccc#\JJ	.
8r	16ddd\LL	.
.	16aa\	.
8DD/ 8D/	16ff#\	.
.	16dd\JJ	.
8FF#/ 8F#/L	16ddd\LL	.
.	16aa\	.
8AA/ 8A/J	16ff#\	.
.	16dd\JJ	.
4D\ 4d\	16ddd\LL	.
.	16aa\	.
.	16ff#\	.
.	16dd\JJ)	.
=111	=111	=111
4r	(16bb\LL	.
.	16ccc#\	.
.	16ddd\	.
.	16ccc#\JJ	.
8r	16ddd\LL	.
.	16bb\	.
8GG\ 8G\	16gg\	.
.	16dd\JJ	.
8BB\ 8B\L	16ddd\LL	.
.	16bb\	.
8D\ 8d\J	16gg\	.
.	16dd\JJ	.
4G\ 4g\	16ddd\LL	.
.	16bb\	.
.	16gg\	.
.	16dd\JJ)	.
=112	=112	=112
8AA\ 8A\L	8.ff#\ 8.aa\L	.
8AA\ 8A\	.	.
.	32gg\ 32bb\LL	.
.	32ee\ 32gg\JJJ	.
8AA\ 8A\	4.dd\ 4.ff#\	.
8AA\ 8A\J	.	.
8AA\ 8A\L	.	.
8AA\ 8A\	8ff#\ (8aa\L	p
8AA\ 8A\	8ee\ 8gg\	.
8AA\ 8A\J	8cc#\ 8ee\J)	.
=113	=113	=113
4r	(16ff#\LL	f
.	16aa\	.
.	16ddd\	.
.	16ccc#\JJ	.
8r	16ddd\LL	.
.	16aa\	.
8DD/ 8D/	16ff#\	.
.	16dd\JJ	.
8FF#/ 8F#/L	16ddd\LL	.
.	16aa\	.
8AA/ 8A/J	16ff#\	.
.	16dd\JJ	.
4D\ 4d\	16ddd\LL	.
.	16aa\	.
.	16ff#\	.
.	16dd\JJ)	.
=114	=114	=114
4r	(16bb\LL	.
.	16ccc#\	.
.	16ddd\	.
.	16ccc#\JJ	.
8r	16ddd\LL	.
.	16bb\	.
8GG\ 8G\	16gg\	.
.	16dd\JJ	.
8BB\ 8B\L	16ddd\LL	.
.	16bb\	.
8D\ 8d\J	16gg\	.
.	16dd\JJ	.
4G\ 4g\	16ddd\LL	.
.	16bb\	.
.	16gg\	.
.	16dd\JJ)	.
=115	=115	=115
8AA\ 8A\L	8.ff#\ 8.aa\L	.
8AA\ 8A\	.	.
.	32gg\ 32bb\LL	.
.	32ee\ 32gg\JJJ	.
8AA\ 8A\	4.dd\ 4.ff#\	.
8AA\ 8A\J	.	.
8AA\ 8A\L	.	.
8AA\ 8A\	8ff#\ (8aa\L	p
8AA\ 8A\	8ee\ 8gg\	.
8AA\ 8A\J	8cc#\ 8ee\J)	.
=116	=116	=116
(8.d\L	(8.dd\L	f
32e\LL	32ee\LL	.
32c#\JJJ	32cc#\JJJ	.
8.B\L	8.b/L	.
32c#\LL	32cc#/LL	.
32A\JJJ	32a/JJJ	.
8.G\L	8.g/L	.
32A\LL	32a/LL	.
32F#\JJJ	32f#/JJJ	.
8.E\L	8.e/L	.
32F#\LL	32f#/LL	.
32D\JJJ	32d/JJJ	.
=117	=117	=117
4C#/)	4c#/)	.
4r	4a:\ 4cc#:\ 4ee:\ 4gg:\	.
4D\ 4d\	4r	.
4r	4f#:\ 4a:\ 4dd:\ 4ff#:\	.
=118	=118	=118
4G\ 4d\	8r	.
.	(8b/L	p
4r	8a#/	.
.	8b/J)	.
4G#\ 4fn\	8r	.
.	(8dd\L	.
4r	8cc#\	.
.	8dd\J)	.
*clefG2	*	*
=119	=119	=119
(16A/LL	2an/	f
16f#X/	.	.
16d/	.	.
16f#/JJ	.	.
16A/LL	.	.
16f#/	.	.
16d/	.	.
16f#/JJ	.	.
16A/LL	2eeT\	.
16gn/	.	.
16c#/	.	.
16g/JJ	.	.
16A/LL	.	.
16g/	.	.
16c#/)	.	.
16g/JJ	.	.
.	16ddQ/LL	.
.	16eeQ/JJ	.
*clefF4	*	*
=120	=120	=120
4D\ 4d\	(16dd\LL	.
.	16ff#\	.
.	16dd\	.
.	16cc#\JJ	.
4BB\ 4B\	16b\LL	.
.	16dd\	.
.	16b\	.
.	16a\JJ	.
4GG/ 4G/	16g/LL	.
.	16b/	.
.	16g/	.
.	16f#/JJ	.
4EE/ 4E/	16e/LL	.
.	16g/	.
.	16e/	.
.	16d/JJ	.
=121	=121	=121
4CC#/ 4C#/	8c#/)	.
.	16r	.
.	(32a\LLL	.
.	32ee\JJJ	.
8r	8gg\L)	.
16r	8gg'\J	.
16C#\ 16c#\	.	.
4D\ 4d\	8r	.
.	16r	.
.	(32a\LLL	.
.	32dd\JJJ	.
8r	8ff#\L)	.
16r	8ff#'\J	.
16D\ 16d\	.	.
=122	=122	=122
4GG/ 4G/	8r	.
.	8b\ (8bb\L	p
4r	8a#\ 8aa#\	.
.	8b\ 8bb\J	.
2r	8a#\ 8aa#\L	.
.	8b\ 8bb\	.
.	8cc#\ 8ccc#\	.
.	8dd\ 8ddd\J)	.
=123	=123	=123
4G#\ 4B\ 4fn\	8r	.
.	8dd\ (8ddd\L	.
4r	8cc#\ 8ccc#\	.
.	8dd\ 8ddd\J	.
2r	8cc#\ 8ccc#\L	.
.	8dd\ 8ddd\	.
.	8ee\ 8eee\	.
.	8ffn\ 8fffn\J)	.
*clefG2	*	*
=124	=124	=124
(16A/LL	(16aa\LL	f
16f#X/	16ddd\	.
16d/	16aa\	.
16f#/JJ	16ff#\JJ)	.
16A/LL	(16ff#\LL	.
16f#/	16aa\	.
16d/	16ff#\	.
16f#/JJ	16dd\JJ)	.
16A/LL	(16aa\LL	.
16f#/	16ddd\	.
16d/	16aa\	.
16f#/JJ	16ff#\JJ)	.
16A/LL	(16ff#\LL	.
16f#/	16aa\	.
16d/	16ff#\	.
16f#/JJ	16dd\JJ)	.
=125	=125	=125
16A/LL	1eeT	.
16gn/	.	.
16c#/	.	.
16g/JJ	.	.
16A/LL	.	.
16g/	.	.
16c#/	.	.
16g/JJ	.	.
16A/LL	.	.
16g/	.	.
16c#/	.	.
16g/JJ	.	.
16A/LL	.	.
16g/	.	.
16c#/	.	.
16g/JJ)	.	.
.	16ddQ/LL	.
.	16eeQ/JJ	.
*clefF4	*	*
=126	=126	=126
4.D\ 4.d\	4.dd\	.
(16F#\LL	(16f#/LL	.
16D\JJ	16d/JJ	.
8G\L)	8g/L)	.
(16E\L	(16e/L	.
16C#\JJ	16c#/JJ	.
8D/L)	8d/L)	.
(16BB/L	(16B/L	.
16GG#/JJ	16G#/JJ	.
=127	=127	=127
4AA/)	4A/)	.
4AA\ 4A\	4ee\ 4aa\ 4ccc#\	.
4DD/ 4D/	4dd\ 4ff#\ 4aa\ 4ddd\	.
4r	4r	.
==:|!	==:|!	==:|!
*-	*-	*-
!!!SMS: Alte Mozart-Ausgabe, Band 20, Breitkopf &amp; H&auml;rtel 1877-1883.
!!!ONB: Stich und Druck von Breitkopf &amp; H&auml;rtel in Leipzig
!!!ONB: Ausgegeben 1878
!!!ENC: Craig Stuart Sapp
!!!END: 2009/09/23/
!!!title: @{OTL}, K 284 (205b), @{OMV}
!!!hum2abc: --no-tempo -s 0.65 --spacing 2.0 -p "%gracespace  0 6.0 12.0"
